X: 67
T:Gan Ainm
M:4/4
L:1/8
R:Reel
D:Session tape - Corofin, Clare
Z:Bernie Stocks
K:G
G2BG DGBA | Ggfg edBA | G2BG DGBG | ABAG FDEF | GEED EDB,A, | G,gfg edBA |\
G2BG DGBG |1 AGAB GEDE :|2 AGAB G2Bc |: dg~g2 gfed | ea~a2 ageg | fdad bdad |\
dfaf gfed| BG~G2 EGDE | Ggfg edBA | G2BG DGBG | AGAB G4 :|
<end>
<start>
